Sweet-Rainbow/icons/netease-cloud-music.svg

<?xml version="1.0" encoding="UTF-8" standalone="no"?>
<!-- Generator: Gravit.io -->

<svg
   xmlns:dc="http://purl.org/dc/elements/1.1/"
   xmlns:cc="http://creativecommons.org/ns#"
   xmlns:rdf="http://www.w3.org/1999/02/22-rdf-syntax-ns#"
   xmlns:svg="http://www.w3.org/2000/svg"
   xmlns="http://www.w3.org/2000/svg"
   xmlns:sodipodi="http://sodipodi.sourceforge.net/DTD/sodipodi-0.dtd"
   xmlns:inkscape="http://www.inkscape.org/namespaces/inkscape"
   style="isolation:isolate"
   viewBox="0 0 36 36"
   width="48"
   height="48"
   version="1.1"
   id="svg9"
   sodipodi:docname="netease-cloud-music.svg"
   inkscape:version="0.92.4 (5da689c313, 2019-01-14)">
  <metadata
     id="metadata15">
    <rdf:RDF>
      <cc:Work
         rdf:about="">
        <dc:format>image/svg+xml</dc:format>
        <dc:type
           rdf:resource="http://purl.org/dc/dcmitype/StillImage" />
        <dc:title></dc:title>
      </cc:Work>
    </rdf:RDF>
  </metadata>
  <defs
     id="defs13" />
  <sodipodi:namedview
     pagecolor="#ffffff"
     bordercolor="#666666"
     borderopacity="1"
     objecttolerance="10"
     gridtolerance="10"
     guidetolerance="10"
     inkscape:pageopacity="0"
     inkscape:pageshadow="2"
     inkscape:window-width="640"
     inkscape:window-height="480"
     id="namedview11"
     showgrid="false"
     inkscape:zoom="29.365243"
     inkscape:cx="25.325443"
     inkscape:cy="32"
     inkscape:current-layer="svg9"
     units="px" />
  <linearGradient
     id="_lgradient_34"
     x1="0"
     y1="0.5"
     x2="1"
     y2="0.5"
     gradientTransform="matrix(46.808,0,0,47,0.564,0.5)"
     gradientUnits="userSpaceOnUse">
    <stop
       offset="0%"
       stop-opacity="1"
       style="stop-color:rgb(255,224,49)"
       id="stop2" />
    <stop
       offset="100%"
       stop-opacity="1"
       style="stop-color:rgb(250,0,117)"
       id="stop4" />
  </linearGradient>
  <g
     id="g826"
     transform="matrix(0.76595696,0,0,0.76595696,-0.35862658,-0.38295552)">
    <path
       id="path7"
       d="m 15.019,6.952 v 0 c 1.045,-0.549 1.448,-1.843 0.899,-2.888 v 0 C 15.369,3.02 14.075,2.617 13.03,3.166 v 0 C 8.581,5.508 4.987,9.219 2.795,13.743 v 0 c -0.52,1.063 -0.079,2.345 0.984,2.861 v 0 c 1.062,0.517 2.347,0.074 2.866,-0.989 v 0 C 8.442,11.904 11.372,8.877 15.019,6.952 Z M 24.12,4.5 v 0 C 23.016,4.494 22.124,3.594 22.13,2.49 v 0 C 22.136,1.386 23.036,0.494 24.14,0.5 v 0 c 5.76,0.03 11.31,2.18 15.59,6.03 4.28,3.86 7,9.15 7.63,14.88 v 0 c 0.121,1.098 -0.672,2.089 -1.77,2.21 v 0 c -1.098,0.121 -2.089,-0.672 -2.21,-1.77 v 0 C 42.86,17.1 40.6,12.7 37.05,9.51 33.5,6.31 28.9,4.53 24.12,4.5 Z M 42.2,31 v 0 c 0.397,-1.032 1.558,-1.547 2.59,-1.15 v 0 c 1.032,0.397 1.547,1.558 1.15,2.59 v 0 c -1.91,4.93 -5.42,9.08 -9.97,11.78 v 0 c -0.949,0.563 -2.177,0.249 -2.74,-0.7 v 0 c -0.563,-0.949 -0.249,-2.177 0.7,-2.74 v 0 C 37.71,38.54 40.62,35.1 42.2,31 Z M 24.63,43.49 v 0 c 1.104,-0.017 2.013,0.866 2.03,1.97 v 0 c 0.017,1.104 -0.866,2.013 -1.97,2.03 v 0 l -0.66,0.01 c -0.01,0 -0.02,0 -0.03,0 C 18.09,47.5 12.39,45.27 8.05,41.26 3.71,37.25 1.03,31.74 0.57,25.85 v 0 C 0.487,24.752 1.312,23.788 2.41,23.7 v 0 c 1.098,-0.088 2.062,0.736 2.15,1.84 v 0 c 0.38,4.88 2.6,9.45 6.2,12.78 3.6,3.33 8.32,5.18 13.22,5.18 z m 0.181,-23.98 c -0.971,0.308 -1.809,0.778 -2.437,1.563 -0.841,1.048 -1.01,2.253 -0.74,3.536 0.139,0.666 0.464,1.234 1.036,1.631 0.714,0.498 1.685,0.477 2.431,-0.041 0.764,-0.527 1.102,-1.38 0.88,-2.254 -0.243,-0.956 -0.504,-1.91 -0.756,-2.866 -0.139,-0.515 -0.272,-1.031 -0.414,-1.569 z M 28.308,8.929 c 0.293,0.048 0.589,0.083 0.88,0.145 1.018,0.225 1.93,0.676 2.736,1.336 0.527,0.432 0.743,0.998 0.592,1.67 -0.136,0.601 -0.521,1.007 -1.117,1.181 -0.562,0.163 -1.068,0.039 -1.53,-0.331 -0.584,-0.468 -1.235,-0.794 -2.011,-0.723 -0.66,0.06 -1.291,0.752 -1.232,1.371 0.027,0.279 0.124,0.548 0.196,0.821 0.124,0.482 0.251,0.962 0.379,1.442 0.02,0.083 0.041,0.148 0.157,0.157 1.767,0.097 3.363,0.672 4.788,1.744 1.397,1.051 2.543,2.312 3.313,3.897 0.563,1.163 0.88,2.392 0.963,3.68 0.109,1.715 -0.089,3.391 -0.758,4.975 -1.552,3.678 -4.279,6.05 -8.111,7.142 -1.46,0.415 -2.955,0.578 -4.468,0.492 -3.145,-0.178 -5.872,-1.368 -8.167,-3.518 -2.269,-2.12 -3.678,-4.726 -4.17,-7.785 -0.669,-4.163 0.356,-7.894 3.068,-11.128 1.49,-1.777 3.349,-3.059 5.517,-3.885 0.746,-0.284 1.563,-0.021 1.975,0.634 0.417,0.666 0.32,1.522 -0.261,2.055 -0.163,0.151 -0.37,0.269 -0.577,0.352 -3.305,1.345 -5.49,3.722 -6.358,7.187 -0.841,3.361 -0.097,6.441 2.049,9.15 1.348,1.7 3.086,2.84 5.191,3.402 1.362,0.362 2.736,0.385 4.122,0.172 1.43,-0.222 2.766,-0.69 3.962,-1.51 1.65,-1.128 2.822,-2.633 3.409,-4.548 0.506,-1.653 0.524,-3.323 -0.101,-4.96 -0.504,-1.321 -1.395,-2.337 -2.514,-3.175 -0.598,-0.447 -1.238,-0.796 -1.969,-0.968 -0.033,-0.009 -0.068,-0.012 -0.128,-0.021 0.101,0.382 0.193,0.746 0.288,1.108 0.231,0.873 0.467,1.747 0.695,2.623 0.495,1.901 0.015,3.568 -1.294,4.99 -1.211,1.315 -2.753,1.883 -4.524,1.714 -1.969,-0.189 -3.376,-1.258 -4.294,-2.99 -0.48,-0.907 -0.687,-1.884 -0.725,-2.905 -0.063,-1.629 0.319,-3.13 1.252,-4.475 1.001,-1.442 2.39,-2.369 4.027,-2.943 0.131,-0.044 0.261,-0.086 0.412,-0.136 -0.089,-0.335 -0.181,-0.661 -0.261,-0.992 -0.109,-0.453 -0.248,-0.906 -0.305,-1.365 -0.163,-1.362 0.255,-2.55 1.197,-3.542 0.77,-0.811 1.705,-1.326 2.828,-1.483 0.124,-0.018 0.245,-0.036 0.37,-0.054 0.171,-0.003 0.34,-0.003 0.509,-0.003 z"
       style="fill:url(#_lgradient_34);fill-rule:evenodd"
       inkscape:connector-curvature="0" />
  </g>
</svg>

<?xml version="1.0" encoding="UTF-8" standalone="no"?><!-- Generator: Gravit.io --><svg xmlns="http://www.w3.org/2000/svg" xmlns:xlink="http://www.w3.org/1999/xlink" style="isolation:isolate" viewBox="0 0 48 48" width="48pt" height="48pt"><linearGradient id="_lgradient_34" x1="0" y1="0.5" x2="1" y2="0.5" gradientTransform="matrix(46.808,0,0,47,0.564,0.5)" gradientUnits="userSpaceOnUse"><stop offset="0%" stop-opacity="1" style="stop-color:rgb(255,224,49)"/><stop offset="100%" stop-opacity="1" style="stop-color:rgb(250,0,117)"/></linearGradient><path d=" M 15.019 6.952 L 15.019 6.952 C 16.064 6.403 16.467 5.109 15.918 4.064 L 15.918 4.064 C 15.369 3.02 14.075 2.617 13.03 3.166 L 13.03 3.166 C 8.581 5.508 4.987 9.219 2.795 13.743 L 2.795 13.743 C 2.275 14.806 2.716 16.088 3.779 16.604 L 3.779 16.604 C 4.841 17.121 6.126 16.678 6.645 15.615 L 6.645 15.615 C 8.442 11.904 11.372 8.877 15.019 6.952 L 15.019 6.952 L 15.019 6.952 L 15.019 6.952 Z  M 24.12 4.5 L 24.12 4.5 C 23.016 4.494 22.124 3.594 22.13 2.49 L 22.13 2.49 C 22.136 1.386 23.036 0.494 24.14 0.5 L 24.14 0.5 C 29.9 0.53 35.45 2.68 39.73 6.53 C 44.01 10.39 46.73 15.68 47.36 21.41 L 47.36 21.41 C 47.481 22.508 46.688 23.499 45.59 23.62 L 45.59 23.62 C 44.492 23.741 43.501 22.948 43.38 21.85 L 43.38 21.85 C 42.86 17.1 40.6 12.7 37.05 9.51 C 33.5 6.31 28.9 4.53 24.12 4.5 L 24.12 4.5 L 24.12 4.5 L 24.12 4.5 Z  M 42.2 31 L 42.2 31 C 42.597 29.968 43.758 29.453 44.79 29.85 L 44.79 29.85 C 45.822 30.247 46.337 31.408 45.94 32.44 L 45.94 32.44 C 44.03 37.37 40.52 41.52 35.97 44.22 L 35.97 44.22 C 35.021 44.783 33.793 44.469 33.23 43.52 L 33.23 43.52 C 32.667 42.571 32.981 41.343 33.93 40.78 L 33.93 40.78 C 37.71 38.54 40.62 35.1 42.2 31 L 42.2 31 L 42.2 31 Z  M 24.63 43.49 L 24.63 43.49 C 25.734 43.473 26.643 44.356 26.66 45.46 L 26.66 45.46 C 26.677 46.564 25.794 47.473 24.69 47.49 L 24.69 47.49 L 24.03 47.5 C 24.02 47.5 24.01 47.5 24 47.5 C 18.09 47.5 12.39 45.27 8.05 41.26 C 3.71 37.25 1.03 31.74 0.57 25.85 L 0.57 25.85 C 0.487 24.752 1.312 23.788 2.41 23.7 L 2.41 23.7 C 3.508 23.612 4.472 24.436 4.56 25.54 L 4.56 25.54 C 4.94 30.42 7.16 34.99 10.76 38.32 C 14.36 41.65 19.08 43.5 23.98 43.5 L 24.63 43.49 L 24.63 43.49 Z  M 24.811 19.51 C 23.84 19.818 23.002 20.288 22.374 21.073 C 21.533 22.121 21.364 23.326 21.634 24.609 C 21.773 25.275 22.098 25.843 22.67 26.24 C 23.384 26.738 24.355 26.717 25.101 26.199 C 25.865 25.672 26.203 24.819 25.981 23.945 C 25.738 22.989 25.477 22.035 25.225 21.079 C 25.086 20.564 24.953 20.048 24.811 19.51 L 24.811 19.51 Z  M 28.308 8.929 C 28.601 8.977 28.897 9.012 29.188 9.074 C 30.206 9.299 31.118 9.75 31.924 10.41 C 32.451 10.842 32.667 11.408 32.516 12.08 C 32.38 12.681 31.995 13.087 31.399 13.261 C 30.837 13.424 30.331 13.3 29.869 12.93 C 29.285 12.462 28.634 12.136 27.858 12.207 C 27.198 12.267 26.567 12.959 26.626 13.578 C 26.653 13.857 26.75 14.126 26.822 14.399 C 26.946 14.881 27.073 15.361 27.201 15.841 C 27.221 15.924 27.242 15.989 27.358 15.998 C 29.125 16.095 30.721 16.67 32.146 17.742 C 33.543 18.793 34.689 20.054 35.459 21.639 C 36.022 22.802 36.339 24.031 36.422 25.319 C 36.531 27.034 36.333 28.71 35.664 30.294 C 34.112 33.972 31.385 36.344 27.553 37.436 C 26.093 37.851 24.598 38.014 23.085 37.928 C 19.94 37.75 17.213 36.56 14.918 34.41 C 12.649 32.29 11.24 29.684 10.748 26.625 C 10.079 22.462 11.104 18.731 13.816 15.497 C 15.306 13.72 17.165 12.438 19.333 11.612 C 20.079 11.328 20.896 11.591 21.308 12.246 C 21.725 12.912 21.628 13.768 21.047 14.301 C 20.884 14.452 20.677 14.57 20.47 14.653 C 17.165 15.998 14.98 18.375 14.112 21.84 C 13.271 25.201 14.015 28.281 16.161 30.99 C 17.509 32.69 19.247 33.83 21.352 34.392 C 22.714 34.754 24.088 34.777 25.474 34.564 C 26.904 34.342 28.24 33.874 29.436 33.054 C 31.086 31.926 32.258 30.421 32.845 28.506 C 33.351 26.853 33.369 25.183 32.744 23.546 C 32.24 22.225 31.349 21.209 30.23 20.371 C 29.632 19.924 28.992 19.575 28.261 19.403 C 28.228 19.394 28.193 19.391 28.133 19.382 C 28.234 19.764 28.326 20.128 28.421 20.49 C 28.652 21.363 28.888 22.237 29.116 23.113 C 29.611 25.014 29.131 26.681 27.822 28.103 C 26.611 29.418 25.069 29.986 23.298 29.817 C 21.329 29.628 19.922 28.559 19.004 26.827 C 18.524 25.92 18.317 24.943 18.279 23.922 C 18.216 22.293 18.598 20.792 19.531 19.447 C 20.532 18.005 21.921 17.078 23.558 16.504 C 23.689 16.46 23.819 16.418 23.97 16.368 C 23.881 16.033 23.789 15.707 23.709 15.376 C 23.6 14.923 23.461 14.47 23.404 14.011 C 23.241 12.649 23.659 11.461 24.601 10.469 C 25.371 9.658 26.306 9.143 27.429 8.986 C 27.553 8.968 27.674 8.95 27.799 8.932 C 27.97 8.929 28.139 8.929 28.308 8.929 L 28.308 8.929 Z " fill-rule="evenodd" fill="url(#_lgradient_34)"/></svg>
